X:1
T: Miss Donaldson of Banff's Strathspey
C:William Marshall
R:Strathspey
Q: 128
K:Eb
M:4/4
L:1/16
|:G2B2 B2G2 A2c2 c2e2|B3G AGFE D2F2 F2A2|G2B2 B2G2 A2c2 c2a2|agfe B2d2 e4 E4|
G2B2 B2G2 A2c2 c2e2|B3G AGFE D2F2 F2A2|G2B2 B2G2 A2c2 c2a2|agfe B2d2 e4 E4|
B,2E2 G2B2 e2g2 b2E2|D2F2 B2d2 gfed edcB|e3f edcB cBAG AGFE|A3B cBAG AGFE D2B,2|
B,2E2 G2B2 e2g2 b2E2|D2F2 B2d2 gfed edcB|e3f edcB cBAG AGFE|B,3F EDCB, E4 E4:|
